svg/folder-download.svg

<svg width="24" height="24" viewBox="0 0 24 24" fill="none" xmlns="http://www.w3.org/2000/svg">
<path d="M2 6.00002C2 4.89545 2.89543 4.00002 4 4.00002H9C9.26522 4.00002 9.51957 4.10537 9.70711 4.29291L11.4142 6.00002H20C21.1046 6.00002 22 6.89545 22 8.00002V18C22 19.1046 21.1046 20 20 20H4C2.89543 20 2 19.1046 2 18V6.00002ZM8.58579 6.00002L4 6.00002V18H20V8.00002H11C10.7348 8.00002 10.4804 7.89466 10.2929 7.70712L8.58579 6.00002ZM12 9.50002C12.5523 9.50002 13 9.94773 13 10.5V13.0858L13.2929 12.7929C13.6834 12.4024 14.3166 12.4024 14.7071 12.7929C15.0976 13.1834 15.0976 13.8166 14.7071 14.2071L12.7071 16.2071C12.3166 16.5976 11.6834 16.5976 11.2929 16.2071L9.29289 14.2071C8.90237 13.8166 8.90237 13.1834 9.29289 12.7929C9.68342 12.4024 10.3166 12.4024 10.7071 12.7929L11 13.0858V10.5C11 9.94773 11.4477 9.50002 12 9.50002Z" fill="#0D0D0D"/>
</svg>

<svg width="24" height="24" fill="none" xmlns="http://www.w3.org/2000/svg"><path d="M2 6a2 2 0 012-2h5a1 1 0 01.707.293L11.414 6H20a2 2 0 012 2v10a2 2 0 01-2 2H4a2 2 0 01-2-2V6zm6.586 0H4v12h16V8h-9a1 1 0 01-.707-.293L8.586 6zM12 9.5a1 1 0 011 1v2.586l.293-.293a1 1 0 011.414 1.414l-2 2a1 1 0 01-1.414 0l-2-2a1 1 0 111.414-1.414l.293.293V10.5a1 1 0 011-1z" fill="#0D0D0D"/></svg>
